vendor/shopware/storefront/Resources/app/storefront/dist/assets/icon/solid/arrow-down.svg

<svg xmlns="http://www.w3.org/2000/svg" xmlns:xlink="http://www.w3.org/1999/xlink" width="16" height="16" viewBox="0 0 16 16">
  <defs>
    <path id="icons-small-arrow-small-down-a" d="M5.70710678,6.29289322 C5.31658249,5.90236893 4.68341751,5.90236893 4.29289322,6.29289322 C3.90236893,6.68341751 3.90236893,7.31658249 4.29289322,7.70710678 L7.29289322,10.7071068 C7.68341751,11.0976311 8.31658249,11.0976311 8.70710678,10.7071068 L11.7071068,7.70710678 C12.0976311,7.31658249 12.0976311,6.68341751 11.7071068,6.29289322 C11.3165825,5.90236893 10.6834175,5.90236893 10.2928932,6.29289322 L8,8.58578644 L5.70710678,6.29289322 Z"/>
  </defs>
  <use fill="#758CA3" fill-rule="evenodd" transform="matrix(-1 0 0 1 16 0)" xlink:href="#icons-small-arrow-small-down-a"/>
</svg>

<svg xmlns="http://www.w3.org/2000/svg" xmlns:xlink="http://www.w3.org/1999/xlink" width="16" height="16" viewBox="0 0 16 16"><defs><path id="icons-small-arrow-small-down-a" d="M5.7071 6.2929c-.3905-.3905-1.0237-.3905-1.4142 0-.3905.3905-.3905 1.0237 0 1.4142l3 3c.3905.3905 1.0237.3905 1.4142 0l3-3c.3905-.3905.3905-1.0237 0-1.4142-.3905-.3905-1.0237-.3905-1.4142 0L8 8.5858l-2.2929-2.293z"/></defs><use fill="#758CA3" fill-rule="evenodd" transform="matrix(-1 0 0 1 16 0)" xlink:href="#icons-small-arrow-small-down-a"/></svg>
